X: 911
T: Alunelul
M: 4/4
L: 1/8
Q: 170
K: D
"D"A^GAB A=GFE|"D"D2"A"E2"D"F4|"D"A^GAB A=GFE|
"Bm"D2"F#m"C2"Bm"B,4:||:"D"D2F2"A"E2FE|"D"D2F2"A"A4|
"D"D2F2"A"E2FE|"Bm"D2"F#m"C2"Bm"B,4:|

